X: 7
T:The Apple Blossom
M:6/8
L:1/8
C:Dan Beimborn 5/20/95
K:F
|:CFF AFF|BFF AFF|CFF AFF|GGG GFD|
CFF AFF|BFF AFF|GGG CDE|F3 F3:|
K:C 
||CEE GEE|FEE GEE|CEE GEE|FEF D3 
CEE GEE|FEE GEE|CEE GEE|FEF D3|
GBB dBB|cBB dBB|GBB dBB|cBc A3|
GBB dBB|cBB dBB|GBB dBB|cBc A3||
K:F 
|:ceg ceg|ceg gfe|dfa dfa|dfa agf|
ceg ceg|ceg gfe|1Bdf Bdf|Bdf fed: 
2fcA BGE|F3 F3||

